assets/img/link/logo-instagram.svg

<svg fill="none" height="24" viewBox="0 0 24 24" width="24" xmlns="http://www.w3.org/2000/svg" xmlns:xlink="http://www.w3.org/1999/xlink"><clipPath id="a"><path d="m0 0h24v24h-24z"/></clipPath><g clip-path="url(#a)"><path clip-rule="evenodd" d="m7.03016.0830838c-1.27683.0602642-2.14889.2647922-2.91097.5634002-.78885.307537-1.45759.719666-2.12282 1.387636-.66603.66835-1.075034 1.33826-1.380242 2.12794-.295489.76401-.495721 1.63649-.552121 2.9141-.05596804 1.27995-.06880805 1.68819-.06256804 4.94684.00621601 3.2581.02059204 3.6672.08162404 4.9475.061056 1.2765.264792 2.1482.563401 2.9106.30792.7889.719636 1.4572 1.387996 2.1229.66797.6656 1.33826 1.0743 2.12829 1.3799.76323.2951 1.63609.4961 2.9133.5521 1.27994.0563 1.68854.0688 4.94635.0626 3.2593-.0063 3.6679-.0207 4.9479-.0813 1.2768-.061 2.1481-.2655 2.9109-.5634.7889-.3087 1.4576-.7196 2.1229-1.388.6652-.668 1.0742-1.3383 1.3794-2.1283.2955-.7633.4965-1.6361.5521-2.9126.056-1.2807.0692-1.6897.063-4.9479-.0063-3.25861-.0209-3.66685-.0816-4.94642-.0607-1.27761-.2652-2.14893-.5634-2.91178-.3083-.78888-.7197-1.45685-1.3876-2.12287-.668-.66526-1.3383-1.075057-2.1283-1.379498-.7636-.295488-1.6361-.496896-2.9133-.5520962-1.28-.0567601-1.6886-.06921611-4.9475-.0629761-3.25817.006216-3.66677.020208-4.94674.0816241zm.13999 21.6931162c-1.1699-.051-1.80521-.2454-2.22862-.4083-.56064-.2169-.96072-.4771-1.3818-.895-.42029-.4195-.68117-.8185-.90007-1.378-.16447-.4234-.36236-1.0579-.41717-2.2278-.0595-1.2648-.0731-1.6443-.07894-4.8484-.00621-3.2034.00543-3.58289.06065-4.84884.05014-1.16914.24574-1.80521.40824-2.22823.21694-.56146.47626-.96075.89501-1.38183.41952-.42108.81843-.68119 1.3783-.90007.42302-.16527 1.05756-.36161 2.22706-.4172 1.26557-.05988 1.64462-.07272 4.84799-.07893 3.2041-.00624 3.5835.00506 4.8495.06065 1.1691.05092 1.8052.24456 2.2278.40824.5611.21696.9611.47551 1.3818.89503.4207.41954.6816.81768.9005 1.37871.1652.42184.3616 1.05717.4168 2.22631.0602 1.26557.0738 1.64503.0797 4.84846.0062 3.2041-.0055 3.5836-.0611 4.8488-.0509 1.1699-.2449 1.8056-.4082 2.2294-.217.5602-.4763.9603-.8954 1.3814-.4191.4195-.818.6812-1.3783.9001-.4222.1648-1.0575.3616-2.2263.4172-1.2655.0595-1.6446.0731-4.8491.0789-3.20334.0062-3.58242-.0058-4.84835-.0606zm9.78265-16.19073c.0015.79474.6477 1.43821 1.4424 1.43665.7951-.00154 1.4386-.64736 1.4374-1.44209-.0016-.79472-.6477-1.43857-1.4428-1.43701-.7951.00154-1.4386.64774-1.437 1.44245zm-11.11429 6.42623c.0066 3.4032 2.77059 6.1559 6.17299 6.1493 3.4028-.0066 6.157-2.7698 6.1504-6.173-.0066-3.40209-2.771-6.15641-6.1741-6.14981-3.40244.00663-6.15592 2.77105-6.14929 6.17351zm2.16132-.0043c-.00389-2.20882 1.78383-4.00316 3.99217-4.00704 2.2088-.00428 4.0035 1.78267 4.0078 3.99184.0043 2.2092-1.7834 4.0032-3.9926 4.0075-2.20838.0042-4.0031-1.7831-4.00737-3.9923z" fill="#fcf5eb" fill-rule="evenodd"/></g></svg>

<svg width="24" height="24" viewBox="0 0 24 24" fill="none" xmlns="http://www.w3.org/2000/svg">
<g clip-path="url(#clip0_3387_1152)">
<path fill-rule="evenodd" clip-rule="evenodd" d="M7.03016 0.0830838C5.75333 0.143348 4.88127 0.347876 4.11919 0.646484C3.33034 0.954021 2.6616 1.36615 1.99637 2.03412C1.33034 2.70247 0.921336 3.37238 0.616128 4.16206C0.320639 4.92607 0.120407 5.79855 0.064007 7.07616C0.00803896 8.35611 -0.00480105 8.76435 0.00143896 12.023C0.00765497 15.2811 0.022031 15.6902 0.083063 16.9705C0.144119 18.247 0.347855 19.1187 0.646464 19.8811C0.954384 20.67 1.3661 21.3383 2.03446 22.004C2.70243 22.6696 3.37272 23.0783 4.16275 23.3839C4.92598 23.679 5.79884 23.88 7.07605 23.936C8.35599 23.9923 8.76459 24.0048 12.0224 23.9986C15.2817 23.9923 15.6903 23.9779 16.9703 23.9173C18.2471 23.8563 19.1184 23.6518 19.8812 23.3539C20.6701 23.0452 21.3388 22.6343 22.0041 21.9659C22.6693 21.2979 23.0783 20.6276 23.3835 19.8376C23.679 19.0743 23.88 18.2015 23.9356 16.925C23.9916 15.6443 24.0048 15.2353 23.9986 11.9771C23.9923 8.71849 23.9777 8.31025 23.917 7.03068C23.8563 5.75307 23.6518 4.88175 23.3536 4.1189C23.0453 3.33002 22.6339 2.66205 21.966 1.99603C21.298 1.33077 20.6277 0.920973 19.8377 0.616532C19.0741 0.321044 18.2016 0.119636 16.9244 0.0644358C15.6444 0.0076757 15.2358 -0.00478031 11.9769 0.0014597C8.71873 0.0076757 8.31013 0.0216677 7.03016 0.0830838ZM7.17015 21.7762C6.00025 21.7252 5.36494 21.5308 4.94153 21.3679C4.38089 21.151 3.98081 20.8908 3.55973 20.4729C3.13944 20.0534 2.87856 19.6544 2.65966 19.0949C2.49519 18.6715 2.2973 18.037 2.24249 16.8671C2.18299 15.6023 2.16939 15.2228 2.16355 12.0187C2.15734 8.8153 2.16898 8.43581 2.2242 7.16986C2.27434 6.00072 2.46994 5.36465 2.63244 4.94163C2.84938 4.38017 3.1087 3.98088 3.52745 3.5598C3.94697 3.13872 4.34588 2.87861 4.90575 2.65973C5.32877 2.49446 5.96331 2.29812 7.13281 2.24253C8.39838 2.18265 8.77743 2.16981 11.9808 2.1636C15.1849 2.15736 15.5643 2.16866 16.8303 2.22425C17.9994 2.27517 18.6355 2.46881 19.0581 2.63249C19.6192 2.84945 20.0192 3.108 20.4399 3.52752C20.8606 3.94706 21.1215 4.3452 21.3404 4.90623C21.5056 5.32807 21.702 5.9634 21.7572 7.13254C21.8174 8.39811 21.831 8.77757 21.8369 11.981C21.8431 15.1851 21.8314 15.5646 21.7758 16.8298C21.7249 17.9997 21.5309 18.6354 21.3676 19.0592C21.1506 19.6194 20.8913 20.0195 20.4722 20.4406C20.0531 20.8601 19.6542 21.1218 19.0939 21.3407C18.6717 21.5055 18.0364 21.7023 16.8676 21.7579C15.6021 21.8174 15.223 21.831 12.0185 21.8368C8.81516 21.843 8.43608 21.831 7.17015 21.7762ZM16.9528 5.58547C16.9543 6.38021 17.6005 7.02368 18.3952 7.02212C19.1903 7.02058 19.8338 6.37476 19.8326 5.58003C19.831 4.78531 19.1849 4.14146 18.3898 4.14302C17.5947 4.14456 16.9512 4.79076 16.9528 5.58547ZM5.83851 12.0117C5.84511 15.4149 8.6091 18.1676 12.0115 18.161C15.4143 18.1544 18.1685 15.3912 18.1619 11.988C18.1553 8.58591 15.3909 5.83159 11.9878 5.83819C8.58536 5.84482 5.83188 8.60924 5.83851 12.0117ZM7.99983 12.0074C7.99594 9.79858 9.78366 8.00424 11.992 8.00036C14.2008 7.99608 15.9955 9.78303 15.9998 11.9922C16.0041 14.2014 14.2164 15.9954 12.0072 15.9997C9.79882 16.0039 8.0041 14.2166 7.99983 12.0074Z" fill="#FCF5EB"/>
</g>
<defs>
<clipPath id="clip0_3387_1152">
<rect width="24" height="24" fill="white"/>
</clipPath>
</defs>
</svg>
